X: 7054
T: Chloe's Trick
R: jig
M: 6/8
K: Eminor
F|GFE GAB|cAE edc|BGE eAG|FGF FGA|
GFE GAB|cAE edc|BFA EFD|EFE E2:|
|:D|EBe BcA|deA BFA|EBe BcA|Beg f3
[1 EBe BcA|deA BFA|BFA EFD|EFE E2:|
[2 g2g fdB|eAA ABc|BFA EFD|EFE E2||

